packages/icons/svg/Outline/brush.svg

<svg fill="none" height="24" viewBox="0 0 24 24" width="24" xmlns="http://www.w3.org/2000/svg"><path clip-rule="evenodd" d="m17.7656 7.39273-5.867 5.86497c-.151-.226-.324-.44-.521-.636-.197-.197-.411-.369-.637-.517l5.869-5.86697c.306-.307.848-.308 1.157.001.153.153.236.353.233.589.003.211-.081.411-.234.565zm-9.52001 10.54797-2.228.041.039-2.231c.021-1.266 1.07-2.316 2.339-2.338.014 0 .026-.001.04-.001.584 0 1.125.22 1.528.624.41301.412.63401.968.62401 1.566-.021 1.268-1.07201 2.317-2.34201 2.339zm11.75401-11.11297c.01-.756-.282-1.468-.819-2.004-1.062-1.061-2.925-1.064-3.985 0l-6.61304 6.60997c-.075-.004-.147-.02-.222-.021-2.334.042-4.265 1.973-4.304 4.304l-.057 3.266c-.005.271.102.533.293.724.188.188.443.293.707.293h.019l3.266-.059c2.33204-.041 4.26204-1.972 4.30304-4.305.001-.075-.015-.146-.017-.222l6.609-6.60697c.538-.538.83-1.25.82-1.979z" fill="#6b7280" fill-rule="evenodd"/></svg>

<svg width="24" height="24" viewBox="0 0 24 24" fill="none" xmlns="http://www.w3.org/2000/svg">
<g id="Icon/Outline/brush">
<path id="Mask" fill-rule="evenodd" clip-rule="evenodd" d="M17.7657 7.39259L11.8987 13.2576C11.7477 13.0316 11.5747 12.8176 11.3777 12.6216C11.1807 12.4246 10.9667 12.2526 10.7407 12.1046L16.6097 6.23759C16.9157 5.93059 17.4577 5.92959 17.7667 6.23859C17.9197 6.39159 18.0027 6.59159 17.9997 6.82759C18.0027 7.03859 17.9187 7.23859 17.7657 7.39259ZM8.24568 17.9406L6.01768 17.9816L6.05668 15.7506C6.07768 14.4846 7.12668 13.4346 8.39568 13.4126C8.40968 13.4126 8.42168 13.4116 8.43568 13.4116C9.01968 13.4116 9.56068 13.6316 9.96368 14.0356C10.3767 14.4476 10.5977 15.0036 10.5877 15.6016C10.5667 16.8696 9.51568 17.9186 8.24568 17.9406ZM19.9997 6.82759C20.0097 6.07159 19.7177 5.35959 19.1807 4.82359C18.1187 3.76259 16.2557 3.75959 15.1957 4.82359L8.58268 11.4336C8.50768 11.4296 8.43568 11.4136 8.36068 11.4126C6.02668 11.4546 4.09568 13.3856 4.05668 15.7166L3.99968 18.9826C3.99468 19.2536 4.10168 19.5156 4.29268 19.7066C4.48068 19.8946 4.73568 19.9996 4.99968 19.9996H5.01868L8.28468 19.9406C10.6167 19.8996 12.5467 17.9686 12.5877 15.6356C12.5887 15.5606 12.5727 15.4896 12.5707 15.4136L19.1797 8.80659C19.7177 8.26859 20.0097 7.55659 19.9997 6.82759Z" fill="#000000"/>
</g>
</svg>
